X: 14411
T: Galway Farmer, The
R: reel
M: 4/4
K: Bminor
|:B2 Bc BAFA|BABc dcBA|A2 ef ecBA|ae (3f^ga fedc|B2 Bc BAFA|
BABc dcBA|A2 ef ecBA|1 Bcde fedc:|2 B2 BA B3 A||
B2 fB gBfB|B2 fB gBfB|B2 gB aBgB|B2 gB aBg^g|a2 af ecBA|
ceef ecBe|1 fefg fedc|Bcde fedc:|2 fefg fedc|B8||

